content/blogs/regnskap/innganende-faktura/innganende-faktura-prosess.svg

<svg xmlns="http://www.w3.org/2000/svg" width="900" height="600"><defs><linearGradient id="a" x1="0%" x2="100%" y1="0%" y2="100%"><stop offset="0%" style="stop-color:#f8f9fa;stop-opacity:1"/><stop offset="100%" style="stop-color:#e9ecef;stop-opacity:1"/></linearGradient><linearGradient id="b" x1="0%" x2="0%" y1="0%" y2="100%"><stop offset="0%" style="stop-color:#fff;stop-opacity:1"/><stop offset="100%" style="stop-color:#f1f3f4;stop-opacity:1"/></linearGradient></defs><path fill="url(#a)" d="M0 0h900v600H0z"/><text x="450" y="40" fill="#2c3e50" font-family="Arial, sans-serif" font-size="24" font-weight="bold" text-anchor="middle">
    Prosess for Mottak av Inngående Fakturaer
  </text><g transform="translate(50 80)"><rect width="180" height="120" fill="url(#b)" stroke="#007bff" stroke-width="2" rx="10"/><text x="90" y="25" fill="#007bff" font-family="Arial, sans-serif" font-size="16" font-weight="bold" text-anchor="middle">
      1. MOTTAK
    </text><text x="15" y="45" fill="#495057" font-family="Arial, sans-serif" font-size="11">Mottakskanaler:</text><text x="15" y="60" fill="#6c757d" font-family="Arial, sans-serif" font-size="10">• Papirfaktura (post)</text><text x="15" y="75" fill="#6c757d" font-family="Arial, sans-serif" font-size="10">• eFaktura (elektronisk)</text><text x="15" y="90" fill="#6c757d" font-family="Arial, sans-serif" font-size="10">• E-post (PDF)</text><text x="15" y="105" fill="#6c757d" font-family="Arial, sans-serif" font-size="10">• Leverandørportaler</text></g><path fill="none" stroke="#6c757d" stroke-width="3" d="M250 140h40M285 135l5 5-5 5"/><g transform="translate(310 80)"><rect width="180" height="120" fill="url(#b)" stroke="#28a745" stroke-width="2" rx="10"/><text x="90" y="25" fill="#28a745" font-family="Arial, sans-serif" font-size="16" font-weight="bold" text-anchor="middle">
      2. REGISTRERING
    </text><text x="15" y="45" fill="#495057" font-family="Arial, sans-serif" font-size="11">Registrere:</text><text x="15" y="60" fill="#6c757d" font-family="Arial, sans-serif" font-size="10">• Mottaksdato</text><text x="15" y="75" fill="#6c757d" font-family="Arial, sans-serif" font-size="10">• Leverandørinfo</text><text x="15" y="90" fill="#6c757d" font-family="Arial, sans-serif" font-size="10">• Fakturanummer</text><text x="15" y="105" fill="#6c757d" font-family="Arial, sans-serif" font-size="10">• Forfallsdato</text></g><path fill="none" stroke="#6c757d" stroke-width="3" d="M510 140h40M545 135l5 5-5 5"/><g transform="translate(570 80)"><rect width="180" height="120" fill="url(#b)" stroke="#ffc107" stroke-width="2" rx="10"/><text x="90" y="25" fill="#f57c00" font-family="Arial, sans-serif" font-size="16" font-weight="bold" text-anchor="middle">
      3. KONTROLL
    </text><text x="15" y="45" fill="#495057" font-family="Arial, sans-serif" font-size="11">Kontrolltyper:</text><text x="15" y="60" fill="#6c757d" font-family="Arial, sans-serif" font-size="10">• Saklig kontroll</text><text x="15" y="75" fill="#6c757d" font-family="Arial, sans-serif" font-size="10">• Regnskapsmessig</text><text x="15" y="90" fill="#6c757d" font-family="Arial, sans-serif" font-size="10">• Økonomisk kontroll</text><text x="15" y="105" fill="#6c757d" font-family="Arial, sans-serif" font-size="10">• MVA-validering</text></g><path fill="none" stroke="#6c757d" stroke-width="3" d="M660 220v40M655 255l5 5 5-5"/><g transform="translate(570 280)"><rect width="180" height="120" fill="url(#b)" stroke="#17a2b8" stroke-width="2" rx="10"/><text x="90" y="25" fill="#17a2b8" font-family="Arial, sans-serif" font-size="16" font-weight="bold" text-anchor="middle">
      4. ATTESTERING
    </text><text x="15" y="45" fill="#495057" font-family="Arial, sans-serif" font-size="11">Godkjenning av:</text><text x="15" y="60" fill="#6c757d" font-family="Arial, sans-serif" font-size="10">• Bestiller/mottaker</text><text x="15" y="75" fill="#6c757d" font-family="Arial, sans-serif" font-size="10">• Regnskapsansvarlig</text><text x="15" y="90" fill="#6c757d" font-family="Arial, sans-serif" font-size="10">• Budsjettansvarlig</text><text x="15" y="105" fill="#6c757d" font-family="Arial, sans-serif" font-size="10">• Økonomisjef</text></g><path fill="none" stroke="#6c757d" stroke-width="3" d="M550 340h-40M515 335l-5 5 5 5"/><g transform="translate(310 280)"><rect width="180" height="120" fill="url(#b)" stroke="#6f42c1" stroke-width="2" rx="10"/><text x="90" y="25" fill="#6f42c1" font-family="Arial, sans-serif" font-size="16" font-weight="bold" text-anchor="middle">
      5. BOKFØRING
    </text><text x="15" y="45" fill="#495057" font-family="Arial, sans-serif" font-size="11">Bokføringseffekt:</text><text x="15" y="60" fill="#6c757d" font-family="Arial, sans-serif" font-size="10">• Debet: Kostnadskonto</text><text x="15" y="75" fill="#6c757d" font-family="Arial, sans-serif" font-size="10">• Kredit: Leverandørgjeld</text><text x="15" y="90" fill="#6c757d" font-family="Arial, sans-serif" font-size="10">• MVA: Inngående MVA</text><text x="15" y="105" fill="#6c757d" font-family="Arial, sans-serif" font-size="10">• Bilagsarkivering</text></g><path fill="none" stroke="#6c757d" stroke-width="3" d="M290 340h-40M255 335l-5 5 5 5"/><g transform="translate(50 280)"><rect width="180" height="120" fill="url(#b)" stroke="#dc3545" stroke-width="2" rx="10"/><text x="90" y="25" fill="#dc3545" font-family="Arial, sans-serif" font-size="16" font-weight="bold" text-anchor="middle">
      6. BETALING
    </text><text x="15" y="45" fill="#495057" font-family="Arial, sans-serif" font-size="11">Betalingsmetoder:</text><text x="15" y="60" fill="#6c757d" font-family="Arial, sans-serif" font-size="10">• BankGiro</text><text x="15" y="75" fill="#6c757d" font-family="Arial, sans-serif" font-size="10">• AvtaleGiro</text><text x="15" y="90" fill="#6c757d" font-family="Arial, sans-serif" font-size="10">• Direkte remittering</text><text x="15" y="105" fill="#6c757d" font-family="Arial, sans-serif" font-size="10">• Bankoverføring</text></g><g transform="translate(50 450)"><rect width="800" height="120" fill="#f8f9fa" stroke="#dee2e6" rx="10"/><text x="400" y="25" fill="#2c3e50" font-family="Arial, sans-serif" font-size="18" font-weight="bold" text-anchor="middle">
      Kvalitetssikring og Automatisering
    </text><g font-family="Arial, sans-serif"><text fill="#495057" font-size="14" font-weight="bold" transform="translate(30 40)">Kvalitetskontroll:</text><text y="20" fill="#6c757d" font-size="11" transform="translate(30 40)">• Tredelt kontrollprinsipp</text><text y="35" fill="#6c757d" font-size="11" transform="translate(30 40)">• Automatisk validering</text><text y="50" fill="#6c757d" font-size="11" transform="translate(30 40)">• Avviksrapportering</text><text y="65" fill="#6c757d" font-size="11" transform="translate(30 40)">• Auditspor</text></g><g font-family="Arial, sans-serif"><text fill="#495057" font-size="14" font-weight="bold" transform="translate(280 40)">Automatisering:</text><text y="20" fill="#6c757d" font-size="11" transform="translate(280 40)">• OCR-teknologi</text><text y="35" fill="#6c757d" font-size="11" transform="translate(280 40)">• AI-drevet tolkning</text><text y="50" fill="#6c757d" font-size="11" transform="translate(280 40)">• Workflow-automatisering</text><text y="65" fill="#6c757d" font-size="11" transform="translate(280 40)">• ERP-integrasjon</text></g><g font-family="Arial, sans-serif"><text fill="#495057" font-size="14" font-weight="bold" transform="translate(530 40)">Fordeler:</text><text y="20" fill="#6c757d" font-size="11" transform="translate(530 40)">• 70-90% tidsbesparelse</text><text y="35" fill="#6c757d" font-size="11" transform="translate(530 40)">• Reduserte feil</text><text y="50" fill="#6c757d" font-size="11" transform="translate(530 40)">• Bedre kontroll</text><text y="65" fill="#6c757d" font-size="11" transform="translate(530 40)">• Optimalisert kontantstrøm</text></g></g><g fill="#6c757d" font-family="Arial, sans-serif" font-size="10" text-anchor="middle"><text x="90" transform="translate(50 220)">Dag 1</text><text x="310" transform="translate(50 220)">Dag 1-2</text><text x="570" transform="translate(50 220)">Dag 2-5</text></g><g fill="#6c757d" font-family="Arial, sans-serif" font-size="10" text-anchor="middle"><text x="90" transform="translate(50 420)">Forfallsdato</text><text x="310" transform="translate(50 420)">Dag 3-7</text><text x="570" transform="translate(50 420)">Dag 5-10</text></g></svg>

<svg width="900" height="600" xmlns="http://www.w3.org/2000/svg">
  <defs>
    <linearGradient id="bgGradient" x1="0%" y1="0%" x2="100%" y2="100%">
      <stop offset="0%" style="stop-color:#f8f9fa;stop-opacity:1" />
      <stop offset="100%" style="stop-color:#e9ecef;stop-opacity:1" />
    </linearGradient>
    <linearGradient id="processGradient" x1="0%" y1="0%" x2="0%" y2="100%">
      <stop offset="0%" style="stop-color:#ffffff;stop-opacity:1" />
      <stop offset="100%" style="stop-color:#f1f3f4;stop-opacity:1" />
    </linearGradient>
  </defs>
  

  <rect width="900" height="600" fill="url(#bgGradient)"/>
  

  <text x="450" y="40" text-anchor="middle" font-family="Arial, sans-serif" font-size="24" font-weight="bold" fill="#2c3e50">
    Prosess for Mottak av Inngående Fakturaer
  </text>
  

  

  <g transform="translate(50, 80)">
    <rect x="0" y="0" width="180" height="120" fill="url(#processGradient)" stroke="#007bff" stroke-width="2" rx="10"/>
    <text x="90" y="25" text-anchor="middle" font-family="Arial, sans-serif" font-size="16" font-weight="bold" fill="#007bff">
      1. MOTTAK
    </text>
    

    <text x="15" y="45" font-family="Arial, sans-serif" font-size="11" fill="#495057">Mottakskanaler:</text>
    <text x="15" y="60" font-family="Arial, sans-serif" font-size="10" fill="#6c757d">• Papirfaktura (post)</text>
    <text x="15" y="75" font-family="Arial, sans-serif" font-size="10" fill="#6c757d">• eFaktura (elektronisk)</text>
    <text x="15" y="90" font-family="Arial, sans-serif" font-size="10" fill="#6c757d">• E-post (PDF)</text>
    <text x="15" y="105" font-family="Arial, sans-serif" font-size="10" fill="#6c757d">• Leverandørportaler</text>
  </g>
  

  <path d="M 250 140 L 290 140" stroke="#6c757d" stroke-width="3" fill="none"/>
  <path d="M 285 135 L 290 140 L 285 145" stroke="#6c757d" stroke-width="3" fill="none"/>
  

  <g transform="translate(310, 80)">
    <rect x="0" y="0" width="180" height="120" fill="url(#processGradient)" stroke="#28a745" stroke-width="2" rx="10"/>
    <text x="90" y="25" text-anchor="middle" font-family="Arial, sans-serif" font-size="16" font-weight="bold" fill="#28a745">
      2. REGISTRERING
    </text>
    

    <text x="15" y="45" font-family="Arial, sans-serif" font-size="11" fill="#495057">Registrere:</text>
    <text x="15" y="60" font-family="Arial, sans-serif" font-size="10" fill="#6c757d">• Mottaksdato</text>
    <text x="15" y="75" font-family="Arial, sans-serif" font-size="10" fill="#6c757d">• Leverandørinfo</text>
    <text x="15" y="90" font-family="Arial, sans-serif" font-size="10" fill="#6c757d">• Fakturanummer</text>
    <text x="15" y="105" font-family="Arial, sans-serif" font-size="10" fill="#6c757d">• Forfallsdato</text>
  </g>
  

  <path d="M 510 140 L 550 140" stroke="#6c757d" stroke-width="3" fill="none"/>
  <path d="M 545 135 L 550 140 L 545 145" stroke="#6c757d" stroke-width="3" fill="none"/>
  

  <g transform="translate(570, 80)">
    <rect x="0" y="0" width="180" height="120" fill="url(#processGradient)" stroke="#ffc107" stroke-width="2" rx="10"/>
    <text x="90" y="25" text-anchor="middle" font-family="Arial, sans-serif" font-size="16" font-weight="bold" fill="#f57c00">
      3. KONTROLL
    </text>
    

    <text x="15" y="45" font-family="Arial, sans-serif" font-size="11" fill="#495057">Kontrolltyper:</text>
    <text x="15" y="60" font-family="Arial, sans-serif" font-size="10" fill="#6c757d">• Saklig kontroll</text>
    <text x="15" y="75" font-family="Arial, sans-serif" font-size="10" fill="#6c757d">• Regnskapsmessig</text>
    <text x="15" y="90" font-family="Arial, sans-serif" font-size="10" fill="#6c757d">• Økonomisk kontroll</text>
    <text x="15" y="105" font-family="Arial, sans-serif" font-size="10" fill="#6c757d">• MVA-validering</text>
  </g>
  

  <path d="M 660 220 L 660 260" stroke="#6c757d" stroke-width="3" fill="none"/>
  <path d="M 655 255 L 660 260 L 665 255" stroke="#6c757d" stroke-width="3" fill="none"/>
  

  <g transform="translate(570, 280)">
    <rect x="0" y="0" width="180" height="120" fill="url(#processGradient)" stroke="#17a2b8" stroke-width="2" rx="10"/>
    <text x="90" y="25" text-anchor="middle" font-family="Arial, sans-serif" font-size="16" font-weight="bold" fill="#17a2b8">
      4. ATTESTERING
    </text>
    

    <text x="15" y="45" font-family="Arial, sans-serif" font-size="11" fill="#495057">Godkjenning av:</text>
    <text x="15" y="60" font-family="Arial, sans-serif" font-size="10" fill="#6c757d">• Bestiller/mottaker</text>
    <text x="15" y="75" font-family="Arial, sans-serif" font-size="10" fill="#6c757d">• Regnskapsansvarlig</text>
    <text x="15" y="90" font-family="Arial, sans-serif" font-size="10" fill="#6c757d">• Budsjettansvarlig</text>
    <text x="15" y="105" font-family="Arial, sans-serif" font-size="10" fill="#6c757d">• Økonomisjef</text>
  </g>
  

  <path d="M 550 340 L 510 340" stroke="#6c757d" stroke-width="3" fill="none"/>
  <path d="M 515 335 L 510 340 L 515 345" stroke="#6c757d" stroke-width="3" fill="none"/>
  

  <g transform="translate(310, 280)">
    <rect x="0" y="0" width="180" height="120" fill="url(#processGradient)" stroke="#6f42c1" stroke-width="2" rx="10"/>
    <text x="90" y="25" text-anchor="middle" font-family="Arial, sans-serif" font-size="16" font-weight="bold" fill="#6f42c1">
      5. BOKFØRING
    </text>
    

    <text x="15" y="45" font-family="Arial, sans-serif" font-size="11" fill="#495057">Bokføringseffekt:</text>
    <text x="15" y="60" font-family="Arial, sans-serif" font-size="10" fill="#6c757d">• Debet: Kostnadskonto</text>
    <text x="15" y="75" font-family="Arial, sans-serif" font-size="10" fill="#6c757d">• Kredit: Leverandørgjeld</text>
    <text x="15" y="90" font-family="Arial, sans-serif" font-size="10" fill="#6c757d">• MVA: Inngående MVA</text>
    <text x="15" y="105" font-family="Arial, sans-serif" font-size="10" fill="#6c757d">• Bilagsarkivering</text>
  </g>
  

  <path d="M 290 340 L 250 340" stroke="#6c757d" stroke-width="3" fill="none"/>
  <path d="M 255 335 L 250 340 L 255 345" stroke="#6c757d" stroke-width="3" fill="none"/>
  

  <g transform="translate(50, 280)">
    <rect x="0" y="0" width="180" height="120" fill="url(#processGradient)" stroke="#dc3545" stroke-width="2" rx="10"/>
    <text x="90" y="25" text-anchor="middle" font-family="Arial, sans-serif" font-size="16" font-weight="bold" fill="#dc3545">
      6. BETALING
    </text>
    

    <text x="15" y="45" font-family="Arial, sans-serif" font-size="11" fill="#495057">Betalingsmetoder:</text>
    <text x="15" y="60" font-family="Arial, sans-serif" font-size="10" fill="#6c757d">• BankGiro</text>
    <text x="15" y="75" font-family="Arial, sans-serif" font-size="10" fill="#6c757d">• AvtaleGiro</text>
    <text x="15" y="90" font-family="Arial, sans-serif" font-size="10" fill="#6c757d">• Direkte remittering</text>
    <text x="15" y="105" font-family="Arial, sans-serif" font-size="10" fill="#6c757d">• Bankoverføring</text>
  </g>
  

  <g transform="translate(50, 450)">
    <rect x="0" y="0" width="800" height="120" fill="#f8f9fa" stroke="#dee2e6" stroke-width="1" rx="10"/>
    <text x="400" y="25" text-anchor="middle" font-family="Arial, sans-serif" font-size="18" font-weight="bold" fill="#2c3e50">
      Kvalitetssikring og Automatisering
    </text>
    

    <g transform="translate(30, 40)">
      <text x="0" y="0" font-family="Arial, sans-serif" font-size="14" font-weight="bold" fill="#495057">Kvalitetskontroll:</text>
      <text x="0" y="20" font-family="Arial, sans-serif" font-size="11" fill="#6c757d">• Tredelt kontrollprinsipp</text>
      <text x="0" y="35" font-family="Arial, sans-serif" font-size="11" fill="#6c757d">• Automatisk validering</text>
      <text x="0" y="50" font-family="Arial, sans-serif" font-size="11" fill="#6c757d">• Avviksrapportering</text>
      <text x="0" y="65" font-family="Arial, sans-serif" font-size="11" fill="#6c757d">• Auditspor</text>
    </g>
    

    <g transform="translate(280, 40)">
      <text x="0" y="0" font-family="Arial, sans-serif" font-size="14" font-weight="bold" fill="#495057">Automatisering:</text>
      <text x="0" y="20" font-family="Arial, sans-serif" font-size="11" fill="#6c757d">• OCR-teknologi</text>
      <text x="0" y="35" font-family="Arial, sans-serif" font-size="11" fill="#6c757d">• AI-drevet tolkning</text>
      <text x="0" y="50" font-family="Arial, sans-serif" font-size="11" fill="#6c757d">• Workflow-automatisering</text>
      <text x="0" y="65" font-family="Arial, sans-serif" font-size="11" fill="#6c757d">• ERP-integrasjon</text>
    </g>
    

    <g transform="translate(530, 40)">
      <text x="0" y="0" font-family="Arial, sans-serif" font-size="14" font-weight="bold" fill="#495057">Fordeler:</text>
      <text x="0" y="20" font-family="Arial, sans-serif" font-size="11" fill="#6c757d">• 70-90% tidsbesparelse</text>
      <text x="0" y="35" font-family="Arial, sans-serif" font-size="11" fill="#6c757d">• Reduserte feil</text>
      <text x="0" y="50" font-family="Arial, sans-serif" font-size="11" fill="#6c757d">• Bedre kontroll</text>
      <text x="0" y="65" font-family="Arial, sans-serif" font-size="11" fill="#6c757d">• Optimalisert kontantstrøm</text>
    </g>
  </g>
  

  <g transform="translate(50, 220)">
    <text x="90" y="0" text-anchor="middle" font-family="Arial, sans-serif" font-size="10" fill="#6c757d">Dag 1</text>
    <text x="310" y="0" text-anchor="middle" font-family="Arial, sans-serif" font-size="10" fill="#6c757d">Dag 1-2</text>
    <text x="570" y="0" text-anchor="middle" font-family="Arial, sans-serif" font-size="10" fill="#6c757d">Dag 2-5</text>
  </g>
  
  <g transform="translate(50, 420)">
    <text x="90" y="0" text-anchor="middle" font-family="Arial, sans-serif" font-size="10" fill="#6c757d">Forfallsdato</text>
    <text x="310" y="0" text-anchor="middle" font-family="Arial, sans-serif" font-size="10" fill="#6c757d">Dag 3-7</text>
    <text x="570" y="0" text-anchor="middle" font-family="Arial, sans-serif" font-size="10" fill="#6c757d">Dag 5-10</text>
  </g>
</svg>
